X:232
T: FAHR MICH HINUEBER
N: B0719
O: Europa, Mitteleuropa, Deutschland; Italien
R: ???
M: 3/4
L: 1/8
K: F
ccd | c3BBc | B2A
AAB | A3GDE | F2z
FAc | f3egf | e2d
GAB | d3cGA | F2z
FAc | f3egf | e2d
GAB | d3cGA | F2z

